!! Stephen C. Foster, "Way Down in Ca-i-ro"
!! from 'Stephen Foster Song Book' Dover Publications (New York) pp. 149-151
!! NOTE:  Leading and trailing bars of rest have been omitted.
**kern
*M4/4
*MM82
*C:
=1
4ee
8dd
8cc
8.a
16cc
8cc
8dd
=2
8ee
8dd
8cc
8ee
4dd
8r
8dd
=3
8.ee
16ee
8dd
8cc
8a
8cc
8cc
8dd
=4
8ee
8dd
8.cc
16dd
4.cc
!! Chorus:
8g
=5
8g
8g
8g
8g
4g
8r
8g
=6
8a
8b
8cc
8ee;
4.dd;
8r
=7
4ee
8dd
8cc
8a
8cc
8cc
8dd
=8
16ee
8.dd
8.cc
16dd
4.cc
8g
=9
8g
8g
8g
8g
4g
8r
8g
=10
8a
8b
8cc
8ee;
4.dd;
8r
=11
4ee
8dd
8cc
8a
8cc
8cc
8dd
=12
16ee
8.dd
8.cc
16dd
4.cc
==
*-
